X:1
T:[ID 2-99]
T:[ID 2-99]
T:Bezeichnung standardisiert: Menuet [mit Trio] Menuet Con Trio 8.
T:Urheber unbekannt Datum in der hier transkribierten schriftlichen Quelle: 1792
C:Urheber unbekannt
C:Datum in der hier transkribierten schriftlichen Quelle: 1792
L:1/8
M:3/4
K:C
V:1 treble 
V:1
 g2 g2 g2 | e4 e2 | c2 cBcA | G4 z2 | c2 G2 eB | cAecge | c2 G2 ed | c6 :: d2 e2 f2 | %9
 e2 (^fg)(fg) | d2 e2 f2 | e4 z2 | c2 G2 eB | cAecge | c2 G2 ed | c6 :| %16
[M:3/4]"^Trio" !fermata!gagfef | g2 g2 g2 | gagfef | g4 eg | f4 df | e4 ce | d2 c2 B2 | c6 :: %24
 d2 e2 f2 | e2 (^fg)(fg) | d2 e2 f2 | e4 eg | f4 df | e4 ce | d2 c2 B2 | c6 :| %32

